teeny/solid/building.svg

<svg width="15" height="15" viewBox="0 0 15 15" fill="none" xmlns="http://www.w3.org/2000/svg">
<path d="M7.72361 0.0527864C7.58284 -0.0175955 7.41716 -0.0175955 7.27639 0.0527864L1.27639 3.05279L1.72361 3.94721L7.5 1.05902L13.2764 3.94721L13.7236 3.05279L7.72361 0.0527864Z" fill="black"/>
<path d="M14 6H15V5H0V6H1V14H0V15H4V8H9V15H15V14H14V6Z" fill="black"/>
<path d="M8 15V9H5V15H8Z" fill="black"/>
</svg>

<svg viewBox="0 0 15 15" xmlns="http://www.w3.org/2000/svg"><g><path d="M7.72.05c-.15-.08-.31-.08-.45 0l-6 3 .44.89 5.77-2.89 5.77 2.88 .44-.9 -6-3.01Z"/><path d="M14 6h1V5H0v1h1v8H0v1h4V8h5v7h6v-1h-1V6Z"/><path d="M8 15V9H5v6h3Z"/></g></svg>
